images/skyline.svg

<?xml version="1.0" encoding="UTF-8" standalone="no"?>
<svg width="1553px" height="513px" viewBox="0 0 1553 513" version="1.1" xmlns="http://www.w3.org/2000/svg" xmlns:xlink="http://www.w3.org/1999/xlink" xmlns:sketch="http://www.bohemiancoding.com/sketch/ns">
    <!-- Generator: Sketch 3.3.3 (12081) - http://www.bohemiancoding.com/sketch -->
    <title>skyline</title>
    <desc>Created with Sketch.</desc>
    <defs></defs>
    <g id="Welcome" stroke="none" stroke-width="1" fill="none" fill-rule="evenodd" sketch:type="MSPage">
        <g id="skyline" sketch:type="MSLayerGroup" fill="#F04650">
            <path d="M880.084285,216.252618 L880.084285,204.431312 L874.149673,204.431312 L874.149673,176.355711 L854.862184,176.355711 L854.862184,142.369457 L851.894878,142.369457 L851.894878,103.950213 L854.862184,103.950213 L854.862184,93.60657 L848.927572,93.60657 L848.927572,81.7852641 L798.483371,81.7852641 L798.483371,93.60657 L792.548759,93.60657 L792.548759,103.950213 L796.999718,103.950213 L796.999718,142.369457 L792.548759,142.369457 L792.548759,176.355711 L774.744923,176.355711 L774.744923,204.431312 L767.326658,204.431312 L767.326658,216.252618 L764.359352,216.252618 L764.359352,511.785264 L883.051591,511.785264 L883.051591,216.252618 L880.084285,216.252618 L880.084285,216.252618 Z M813.3199,102.472549 L816.287206,102.472549 L816.287206,148.280109 L813.3199,148.280109 L813.3199,102.472549 Z M831.123736,102.472549 L835.574695,102.472549 L835.574695,148.280109 L831.123736,148.280109 L831.123736,102.472549 Z M822.221818,102.472549 L825.189124,102.472549 L825.189124,148.280109 L822.221818,148.280109 L822.221818,102.472549 Z M842.99296,94.2567418 L842.99296,103.950213 L847.443919,103.950213 L847.443919,142.369457 L842.99296,142.369457 L842.99296,148.280109 L841.509307,148.280109 L841.509307,102.472549 L842.99296,102.472549 L842.99296,94.2567418 L842.99296,94.2567418 Z M801.450677,103.950213 L804.417983,103.950213 L804.417983,102.472549 L805.901636,102.472549 L805.901636,148.280109 L804.417983,148.280109 L804.417983,142.369457 L801.450677,142.369457 L801.450677,103.950213 Z M823.705471,198.923195 C831.080062,198.923195 837.058348,192.948512 837.058348,185.578368 C837.058348,178.208223 831.080062,172.23354 823.705471,172.23354 C816.330881,172.23354 810.352595,178.208223 810.352595,185.578368 C810.352595,192.948512 816.330881,198.923195 823.705471,198.923195 Z" id="tower" sketch:type="MSShapeGroup"></path>
            <path d="M140.687195,502.028938 L140.687195,163.921012 C140.687195,163.921012 135.073523,161.869915 129.172924,159.908581 L129.172924,131.754239 C129.172924,131.754239 115.336671,126.144016 110.132136,124.649453 C104.930257,123.152646 87.5525816,119.784268 87.5525816,119.784268 C87.5525816,119.784268 79.0829242,118.850727 76.2588195,118.850727 C73.9899715,118.850727 67.1834275,119.784268 67.1834275,119.784268 L67.1834275,154.79879 L51.2430435,156.439219 L51.2430435,189.160282 C48.7138359,189.683155 46.8142734,190.100555 46.8142734,190.100555 L46.8142734,502.028938 L87.5525816,502.028938" id="filler" sketch:type="MSShapeGroup"></path>
            <path d="M94.8211522,512.18655 L94.8211522,280.078624 C94.8211522,280.078624 89.2074803,278.027527 83.3068814,276.066193 L83.3068814,247.911851 C83.3068814,247.911851 69.4706281,242.301628 64.2660927,240.807065 C59.064214,239.310258 41.6865386,235.94188 41.6865386,235.94188 C41.6865386,235.94188 33.2168812,235.008339 30.3927765,235.008339 C28.1239285,235.008339 21.3173845,235.94188 21.3173845,235.94188 L21.3173845,270.956402 L5.37700048,272.596831 L5.37700048,305.317894 C2.84779287,305.840767 0.948230439,306.258167 0.948230439,306.258167 L0.948230439,512.18655 L41.6865386,512.18655 L94.8211522,512.18655 Z" id="filler" sketch:type="MSShapeGroup" transform="translate(47.884691, 373.597444) scale(-1, 1) translate(-47.884691, -373.597444) "></path>
            <path d="M442.912478,153.940212 C435.66973,150.271155 424.174654,148.858072 415.886229,148.314682 C414.110186,145.745136 411.010646,143.214452 405.758164,141.209737 C396.063231,137.509189 375.298321,137.859612 375.298321,137.859612 L334.64079,147.979669 L334.64079,164.562788 L328.165898,166.072354 L328.165898,190.973834 L318.124191,193.207027 L318.124191,511.937618 L532.001829,511.937618 L532.001829,188.182509 L461.210476,173.529733 C461.211145,173.529733 455.631973,160.383172 442.912478,153.940212 Z" id="filler" sketch:type="MSShapeGroup"></path>
            <path d="M225.728289,164.467406 C234.420482,164.467406 241.466896,157.425239 241.466896,148.738286 C241.466896,140.051333 234.420482,133.009167 225.728289,133.009167 C217.036096,133.009167 209.989682,140.051333 209.989682,148.738286 C209.989682,157.425239 217.036096,164.467406 225.728289,164.467406 Z M294.736028,209.714034 L294.736028,155.647 L290.262631,140.747894 L283.725056,140.747894 L275.078507,116.371388 L267.134143,118.373826 L265.680138,113.317519 L265.680138,112.919451 L265.298779,112.919451 L259.049341,93.1818258 L251.267206,96.9180967 L239.039518,61.6231622 L228.149613,74.7097897 L228.149613,112.919451 L223.306965,112.919451 L223.306965,74.7097897 L212.41827,61.6425211 L200.322545,96.9556046 L192.473823,93.1818258 L186.157799,112.919451 L185.77644,112.919451 L185.77644,113.316309 L184.321224,118.410124 L176.303009,116.371388 L167.732733,140.747894 L161.193947,140.747894 L156.72055,155.647 L156.72055,209.714034 L149.456578,209.714034 L149.456578,510.987171 L302,510.987171 L302,209.714034 L294.736028,209.714034" id="chase" sketch:type="MSShapeGroup"></path>
            <path d="M1530.97736,362.471643 L1530.97736,324.326655 L1511.12615,324.326655 L1511.12615,284.655866 L1489.74793,284.655866 L1489.74793,246.510877 L1469.89672,246.510877 L1469.89672,206.840089 L1451.57253,206.840089 L1451.57253,167.1693 L1350.78947,167.1693 L1350.78947,206.840089 L1330.93826,206.840089 L1330.93826,246.510877 L1311.08705,246.510877 L1311.08705,284.655866 L1289.70883,284.655866 L1289.70883,324.326655 L1269.85762,324.326655 L1269.85762,362.471643 L1248.4794,362.471643 L1248.4794,512 L1552.35558,512 L1552.35558,362.471643 L1530.97736,362.471643" id="pyramid" sketch:type="MSShapeGroup"></path>
            <path d="M1288.01592,204.720999 L1278.90837,204.720999 L1275.57436,216.61896 L1264.79167,216.61896 L1264.79167,193.026422 L1240.73798,193.026422 L1240.73798,114.926987 L1237.35518,114.926987 L1233.95611,117.909952 L1233.95611,164.518773 L1231.76054,164.518773 L1231.76054,204.941332 L1229.54871,204.941332 L1229.54871,216.61896 L1208.43871,216.61896 L1193.5251,229.296559 L1193.5251,473.594576 L1191.55721,473.594576 L1191.55721,511.915096 L1299.23772,511.915096 L1299.23772,216.61896 L1288.01592,216.61896 L1288.01592,204.720999 Z" id="filler" sketch:type="MSShapeGroup"></path>
            <path d="M1143.314,219.159576 L1072.50958,219.159576 L1036.39257,260.35657 L1022.98346,260.35657 L1022.98346,283.549449 L1009.75403,283.549449 L1009.75403,367.08407 L989.763898,367.08407 L989.763898,397.814076 L986.28247,397.814076 L986.28247,469.159576 L1247.4794,469.159576 L1247.4794,283.549449 L1238.51753,283.549449 L1238.51753,260.35657 L1221.55961,260.35657 L1175.60476,219.159576 L1160.16896,219.159576 L1160.16896,110.965542 L1212.79426,118.164155 L1212.89559,120.936594 L1218.63776,138.641291 L1223.5355,138.641291 L1234.4794,128.718879 L1232.18253,120.790676 L1229.34522,110.916903 L1227.7239,105.323386 L1219.38087,103.377815 L1212.22004,103.377815 L1212.38893,108.582218 L1154.59568,100.702655 L1154.59568,61.4507577 L1148.04285,61.4507577 L1148.04285,99.7785085 L944.871353,72.0054809 L936.595873,80.3714367 L1143.314,108.630857 L1143.314,219.159576 Z" id="crane" sketch:type="MSShapeGroup" transform="translate(1092.037636, 265.305167) scale(-1, 1) translate(-1092.037636, -265.305167) "></path>
            <path d="M649.124309,31.6264056 L647.400024,31.6264056 L647.400024,51.8968799 C641.819475,53.3474473 637.370674,60.4816252 636.254864,69.6322168 L635.982979,69.6322168 L635.982979,81.8866719 C618.142209,89.8197323 605.178847,111.476222 604.480357,137.221531 C600.622894,139.214174 598.429787,141.490409 598.429787,143.906188 C598.429787,144.15827 598.455323,144.408851 598.501889,144.656431 L598.429787,144.656431 L598.429787,149.24041 C596.492043,150.155705 595.425532,151.137022 595.425532,152.158852 L595.425532,221.011574 L554.868085,245.188877 L554.868085,306.708732 L427.187234,306.708732 L427.187234,423.746506 L427.187234,282.700984 L431.693617,282.700984 L431.693617,278.199531 L363.346809,255.692267 L295,278.199531 L295,282.700984 L299.506383,282.700984 L299.506383,423.746506 L296.502128,423.746506 L296.502128,428.247958 L999.497872,428.247958 L999.497872,423.746506 L996.493617,423.746506 L996.493617,282.700984 L1001,282.700984 L1001,278.199531 L932.653191,255.692267 L864.306383,278.199531 L864.306383,282.700984 L868.812766,282.700984 L868.812766,306.708732 L741.131915,306.708732 L741.131915,245.188877 L706.582979,224.59323 L706.582979,152.158852 C706.582979,150.896945 704.972698,149.695057 702.076596,148.604205 L702.076596,144.656431 L702.004494,144.656431 C702.05106,144.408851 702.076596,144.15827 702.076596,143.906188 C702.076596,141.829518 700.448289,139.857882 697.543174,138.078307 C697.091034,110.526415 682.598506,87.4954821 663.021277,80.6892855 L663.021277,69.6322168 L662.749391,69.6322168 C661.620005,60.3702833 657.076023,53.1741324 651.400024,51.8464606 L651.400024,51.8464606 L651.400024,31.6264056 L649.483658,31.6264056 C650.009392,30.5283078 651.59362,27.3845727 652.746847,26.8388889 C654.049534,26.2226085 658.481346,27.4128848 658.481346,27.4128848 C658.481346,27.4128848 657.656152,23.7787249 658.290196,22.820917 C658.741119,22.1395837 661.348596,21.672925 661.348596,21.672925 C661.348596,21.672925 660.565837,15.8929768 660.966296,14.0196452 C661.538599,11.3419539 665.936195,4.26171346 665.936195,4.26171346 L658.863646,11.1496653 C658.863646,11.1496653 658.397623,15.3065442 657.525596,16.3156291 C656.88123,17.0614413 653.893747,17.8462851 653.893747,17.8462851 C653.893747,17.8462851 653.152085,20.9896784 652.555697,21.864257 C652.134976,22.481494 650.261897,23.7775769 650.261897,23.7775769 L649.306148,22.055589 L648.732698,23.4586265 L647.968098,22.246921 L647.968098,23.586245 L643.189348,20.716265 L642.042448,15.3589692 C642.042448,15.3589692 637.332895,12.6548741 636.116799,11.3409973 C634.021987,9.07792244 630,0.626405556 630,0.626405556 C630,0.626405556 632.851766,8.90438432 632.48495,11.7236613 C632.311003,13.0601152 630,16.5069611 630,16.5069611 C630,16.5069611 634.611493,17.5011222 635.161049,18.8029451 C635.537615,19.6951262 633.823,22.438253 633.823,22.438253 C633.823,22.438253 638.19804,23.2211835 638.984049,24.3515729 C639.448161,25.0189389 638.984049,27.6042168 638.984049,27.6042168 C638.984049,27.6042168 644.635016,26.5759987 646.247748,27.4128848 C647.239033,27.9272878 648.631183,30.6214297 649.124309,31.6264056 Z" id="capitol" sketch:type="MSShapeGroup"></path>
            <rect id="Rectangle-4" sketch:type="MSShapeGroup" x="47" y="428" width="1250" height="84"></rect>
            <rect id="Rectangle-5" sketch:type="MSShapeGroup" transform="translate(1180.248287, 405.109260) rotate(-330.000000) translate(-1180.248287, -405.109260) " x="1092.74829" y="333.60926" width="175" height="143"></rect>
            <rect id="Rectangle-5-Copy-4" sketch:type="MSShapeGroup" transform="translate(175.803473, 413.123686) rotate(-345.000000) translate(-175.803473, -413.123686) " x="88.3034731" y="341.623686" width="175" height="143"></rect>
            <rect id="Rectangle-5-Copy-3" sketch:type="MSShapeGroup" x="853.989306" y="408.409589" width="167.213134" height="84"></rect>
            <rect id="Rectangle-5-Copy" sketch:type="MSShapeGroup" transform="translate(497.054559, 346.317995) rotate(7.000000) translate(-497.054559, -346.317995) " x="437.70844" y="284.925082" width="118.692239" height="122.785827"></rect>
        </g>
    </g>
</svg>

<?xml version="1.0" encoding="utf-8"?>
<!-- Generator: Adobe Illustrator 16.0.0, SVG Export Plug-In . SVG Version: 6.00 Build 0)  -->
<!DOCTYPE svg PUBLIC "-//W3C//DTD SVG 1.1//EN" "http://www.w3.org/Graphics/SVG/1.1/DTD/svg11.dtd">
<svg version="1.1" id="Layer_1" xmlns:sketch="http://www.bohemiancoding.com/sketch/ns"
	 xmlns="http://www.w3.org/2000/svg" xmlns:xlink="http://www.w3.org/1999/xlink" x="0px" y="0px" width="1549.688px"
	 height="475.374px" viewBox="2.667 0.626 1549.688 475.374" enable-background="new 2.667 0.626 1549.688 475.374"
	 xml:space="preserve">
<title>skyline</title>
<desc>Created with Sketch.</desc>
<g id="Welcome" sketch:type="MSPage">
	<g id="skyline" sketch:type="MSLayerGroup">
		<path id="tower" sketch:type="MSShapeGroup" fill="#F04650" d="M880.084,216.252v-11.821h-5.935v-28.076h-19.287V142.37h-2.968
			V103.95h2.968V93.606h-5.935V81.785h-50.444v11.821h-5.935v10.344H797v38.419h-4.451v33.986h-17.804v28.076h-7.419v11.821h-2.967
			v295.533h118.692V216.252H880.084L880.084,216.252z M813.32,102.473h2.967v45.808h-2.967V102.473z M831.124,102.473h4.45v45.808
			h-4.45V102.473z M822.222,102.473h2.968v45.808h-2.968V102.473z M842.993,94.257v9.693h4.451v38.419h-4.451v5.911h-1.483v-45.808
			h1.483V94.257L842.993,94.257z M801.451,103.95h2.967v-1.478h1.483v45.808h-1.483v-5.911h-2.967V103.95z M823.705,198.923
			c7.375,0,13.354-5.975,13.354-13.345s-5.979-13.345-13.354-13.345c-7.374,0-13.353,5.975-13.353,13.345
			S816.331,198.923,823.705,198.923z"/>
		<path id="filler" sketch:type="MSShapeGroup" fill="#F04650" d="M140.687,502.029V163.921c0,0-5.613-2.051-11.514-4.012v-28.154
			c0,0-13.836-5.61-19.041-7.105c-5.202-1.497-22.58-4.865-22.58-4.865s-8.47-0.934-11.294-0.934c-2.269,0-9.075,0.934-9.075,0.934
			v35.015l-15.94,1.641v32.721c-2.529,0.523-4.429,0.94-4.429,0.94v311.929h40.738"/>
		<path id="filler_1_" sketch:type="MSShapeGroup" fill="#F04650" d="M0.948,512.187V280.078c0,0,5.614-2.051,11.514-4.012v-28.154
			c0,0,13.836-5.61,19.041-7.105c5.202-1.497,22.58-4.865,22.58-4.865s8.47-0.934,11.293-0.934c2.269,0,9.076,0.934,9.076,0.934
			v35.015l15.94,1.64v32.722c2.529,0.522,4.429,0.939,4.429,0.939v205.929H54.083H0.948z"/>
		<path id="filler_2_" sketch:type="MSShapeGroup" fill="#F04650" d="M442.912,153.94c-7.242-3.669-18.737-5.083-27.025-5.626
			c-1.776-2.569-4.876-5.1-10.129-7.104c-9.694-3.701-30.46-3.351-30.46-3.351l-40.657,10.12v16.583l-6.475,1.509v24.901
			l-10.042,2.233v318.73h213.878V188.183l-70.791-14.653C461.211,173.53,455.632,160.383,442.912,153.94z"/>
		<path id="chase" sketch:type="MSShapeGroup" fill="#F04650" d="M225.729,164.467c8.692,0,15.738-7.042,15.738-15.729
			s-7.046-15.729-15.738-15.729c-8.692,0-15.739,7.042-15.739,15.729S217.036,164.467,225.729,164.467z M294.736,209.714v-54.067
			l-4.473-14.899h-6.538l-8.646-24.376l-7.944,2.002l-1.454-5.057v-0.398h-0.381l-6.25-19.738l-7.782,3.736L239.04,61.623
			l-10.89,13.087v38.209h-4.842V74.71l-10.889-13.067l-12.096,35.313l-7.849-3.774l-6.316,19.738h-0.381v0.397l-1.455,5.094
			l-8.018-2.039l-8.57,24.376h-6.539l-4.473,14.899v54.067h-7.264v301.273H302V209.714H294.736"/>
		<path id="pyramid" sketch:type="MSShapeGroup" fill="#F04650" d="M1530.978,362.472v-38.146h-19.852v-39.67h-21.378v-38.146
			h-19.852V206.84h-18.324v-39.67h-100.783v39.67h-19.851v39.671h-19.852v38.146h-21.378v39.67h-19.852v38.146h-21.378V512h303.876
			V362.472H1530.978"/>
		<path id="filler_3_" sketch:type="MSShapeGroup" fill="#F04650" d="M1288.016,204.721h-9.107l-3.334,11.898h-10.782v-23.593
			h-24.054v-78.1h-3.383l-3.399,2.983v46.608h-2.195v40.423h-2.212v11.678h-21.11l-14.913,12.677v244.298h-1.968v38.32h107.68
			V216.619h-11.222V204.721z"/>
		<path id="crane" sketch:type="MSShapeGroup" fill="#F04650" d="M1040.762,219.16h70.804l36.117,41.197h13.409v23.192h13.229
			v83.535h19.99v30.73h3.481v71.345H936.596v-185.61h8.962v-23.192h16.958l45.955-41.197h15.436V110.966l-52.625,7.198l-0.102,2.772
			l-5.742,17.705h-4.897l-10.944-9.922l2.297-7.928l2.838-9.874l1.621-5.594l8.343-1.945h7.161l-0.169,5.204l57.793-7.879V61.451
			h6.553v38.328l203.172-27.773l8.275,8.366l-206.718,28.259V219.16z"/>
		<path id="capitol" sketch:type="MSShapeGroup" fill="#F04650" d="M649.124,31.626H647.4v20.271
			c-5.581,1.451-10.029,8.584-11.146,17.735h-0.271v12.254c-17.841,7.933-30.805,29.589-31.503,55.335
			c-3.857,1.993-6.051,4.269-6.051,6.685c0,0.252,0.025,0.502,0.072,0.75h-0.072v4.584c-1.938,0.916-3.004,1.897-3.004,2.918v68.853
			l-40.558,24.177v61.52H427.188v117.037V282.701h4.506v-4.502l-68.347-22.507L295,278.199v4.502h4.506v141.045h-3.004v4.502
			h702.996v-4.502h-3.005V282.701H1001v-4.502l-68.347-22.507l-68.347,22.507v4.502h4.506v24.008H741.132v-61.52l-34.549-20.596
			v-72.435c0-1.262-1.61-2.463-4.507-3.555v-3.948h-0.071c0.046-0.248,0.071-0.498,0.071-0.75c0-2.077-1.628-4.048-4.533-5.828
			c-0.452-27.552-14.944-50.583-34.521-57.389V69.632h-0.272c-1.129-9.262-5.673-16.458-11.349-17.786l0,0v-20.22h-1.917
			c0.526-1.098,2.11-4.242,3.264-4.788c1.303-0.616,5.734,0.574,5.734,0.574s-0.825-3.634-0.191-4.592
			c0.451-0.681,3.059-1.148,3.059-1.148s-0.783-5.78-0.382-7.653c0.572-2.678,4.97-9.758,4.97-9.758l-7.073,6.888
			c0,0-0.466,4.157-1.338,5.166c-0.645,0.746-3.632,1.531-3.632,1.531s-0.741,3.144-1.338,4.018
			c-0.421,0.617-2.294,1.913-2.294,1.913l-0.955-1.722l-0.574,1.403l-0.765-1.211v1.339l-4.778-2.87l-1.147-5.357
			c0,0-4.709-2.704-5.925-4.018C634.021,9.078,630,0.626,630,0.626s2.852,8.278,2.485,11.097C632.311,13.06,630,16.507,630,16.507
			s4.611,0.994,5.161,2.296c0.376,0.893-1.338,3.636-1.338,3.636s4.375,0.783,5.161,1.913c0.464,0.667,0,3.253,0,3.253
			s5.65-1.028,7.264-0.191C647.239,27.927,648.631,30.622,649.124,31.626z"/>
		<rect id="Rectangle-4" x="47" y="428" sketch:type="MSShapeGroup" fill="#F04650" width="1250" height="84">
		</rect>
		
			<rect id="Rectangle-5" x="1092.748" y="333.609" sketch:type="MSShapeGroup" transform="matrix(-0.866 -0.5 0.5 -0.866 1999.8188 1346.0679)" fill="#F04650" width="175" height="143">
		</rect>
		
			<rect id="Rectangle-5-Copy-4" x="88.303" y="341.624" sketch:type="MSShapeGroup" transform="matrix(-0.9659 -0.2588 0.2588 -0.9659 238.6909 857.6718)" fill="#F04650" width="175" height="143">
		</rect>
		<rect id="Rectangle-5-Copy-3" x="853.989" y="408.409" sketch:type="MSShapeGroup" fill="#F04650" width="167.213" height="84">
		</rect>
		
			<rect id="Rectangle-5-Copy" x="437.709" y="284.925" sketch:type="MSShapeGroup" transform="matrix(-0.9925 -0.1219 0.1219 -0.9925 948.1993 750.6296)" fill="#F04650" width="118.692" height="122.785">
		</rect>
	</g>
</g>
</svg>
